X:1
T:Title
%%score { ( 1 3 ) | 2 }
L:1/8
M:4/4
K:Ab
V:1 treble nm="Grand Piano"
V:3 treble 
V:2 bass 
V:1
 z4 z2[Q:1/4=106] [CE][CE] | [CA][CA][CA][CA] [CA][G,B,G][A,CF][B,DE] | z4 e4- | e6 z2 | %4
[M:7/8] ec[=DAB] A [EGB]3 |[M:1/4] [G,E][B,DE] | %6
[M:4/4] [A,CA][CA][CA][CA] [CA][G,B,G][A,CF][B,DE] | z4 e4- | e6 z2 | [CA]>[DB] [Ec]>[DB] [A,CA]4 | %10
 z4 c>c c2 | [ce]>[ce] [ce]2 [Af]4 | e>c A>c e2 e2 |[M:7/8] [Ge]>BG>B [Ge]3 |[M:1/4] EE | %15
[M:4/4] [CA][CA][CA][CA] [CA][G,B,G][A,CF][B,DE] | z4 e4- | e6 z2 | %18
[M:8/4] [CA]>[DB][Ec]>[DB] [CA]4 z8 |] %19
V:2
 z4 z2 [A,,A,][A,,A,] | [A,,E,][A,,E,][A,,E,][A,,E,] [A,,F,]A,,A,,A,, | %2
 A,,A,,A,,A,, [A,C]2 [A,C][A,C] | [G,D][E,D][F,D][K:treble][G,D] [A,C]2 [A,CA][A,CA] | %4
[M:7/8] [A,CA][A,CA][K:bass]F, =D E,3 |[M:1/4] E,E, | %6
[M:4/4] A,,[A,,E,][A,,E,][A,,E,] [A,,F,]A,,A,,A,, | A,,A,,A,,A,, [A,C]2 [A,C]2 | %8
 [E,B,]>[E,C] [E,D]>[E,C] [E,B,]2 [E,B,D]2 | [A,,A,]>[A,,A,] [A,,E,]>[A,,E,] A,,4 | A>A A2 A>A A2 | %11
 A,>A, A,2 [D,D]4 | [A,CA]>[A,A] [A,C]>[A,A] [A,CA]2 [A,CA]2 | %13
[M:7/8][K:bass] [E,B,]>[E,G,E][E,B,E]>[E,G,E] [E,B,]3 |[M:1/4] [E,G,][E,B,D] | %15
[M:4/4] [A,,A,][A,,E,][A,,E,][A,,E,] [A,,F,]A,,A,,A,, | A,,A,,A,,A,, [A,C]2 [A,C]2 | %17
 [E,B,]>[E,C] [E,D]>[E,C] [E,B,]2 [E,B,D]2 |[M:8/4] [A,,A,]>[A,,A,][A,,E,]>[A,,E,] [A,,A,]4 z8 |] %19
V:3
 x8 | x8 | [CEA][DEB][EAc][DBd] c2 AA | BGAB A2 ee |[M:7/8] x7 |[M:1/4] x2 |[M:4/4] x8 | %7
 [CEA][DEB][EAc][DBd] c2 A2 | G>A B>A G2 G2 | x8 | x8 | x8 | x8 |[M:7/8] x7 |[M:1/4] x2 | %15
[M:4/4] x8 | [CEA][DEB][EAc][DBd] c2 A2 | G>A B>A G2 G2 |[M:8/4] x16 |] %19

